Dominus_Funeral/symbolic/status/weather-showers-scattered-symbolic.svg

<?xml version="1.0" encoding="UTF-8" standalone="no"?>
<svg
   xmlns:dc="http://purl.org/dc/elements/1.1/"
   xmlns:cc="http://creativecommons.org/ns#"
   xmlns:rdf="http://www.w3.org/1999/02/22-rdf-syntax-ns#"
   xmlns:svg="http://www.w3.org/2000/svg"
   xmlns="http://www.w3.org/2000/svg"
   xmlns:sodipodi="http://sodipodi.sourceforge.net/DTD/sodipodi-0.dtd"
   xmlns:inkscape="http://www.inkscape.org/namespaces/inkscape"
   width="24"
   height="24"
   version="1.1"
   id="svg4"
   sodipodi:docname="weather-showers-scattered-symbolic.svg"
   inkscape:version="0.92.4 (5da689c313, 2019-01-14)">
  <metadata
     id="metadata10">
    <rdf:RDF>
      <cc:Work
         rdf:about="">
        <dc:format>image/svg+xml</dc:format>
        <dc:type
           rdf:resource="http://purl.org/dc/dcmitype/StillImage" />
        <dc:title></dc:title>
      </cc:Work>
    </rdf:RDF>
  </metadata>
  <defs
     id="defs8" />
  <sodipodi:namedview
     pagecolor="#ffffff"
     bordercolor="#666666"
     borderopacity="1"
     objecttolerance="10"
     gridtolerance="10"
     guidetolerance="10"
     inkscape:pageopacity="0"
     inkscape:pageshadow="2"
     inkscape:window-width="1131"
     inkscape:window-height="480"
     id="namedview6"
     showgrid="false"
     inkscape:zoom="10.625"
     inkscape:cx="12"
     inkscape:cy="12"
     inkscape:window-x="0"
     inkscape:window-y="25"
     inkscape:window-maximized="0"
     inkscape:current-layer="svg4" />
  <path
     style="fill:#808080"
     d="m 12,1.9667969 a 5,5 0 0 0 -5,5 A 5,5 0 0 0 7.1074219,7.9726562 3,3 0 0 0 7,7.9667969 3,3 0 0 0 4,10.966797 a 3,3 0 0 0 3,3 h 9 A 4,4 0 0 0 20,9.9667969 4,4 0 0 0 16.919922,6.078125 5,5 0 0 0 12,1.9667969 Z M 5.4179688,16 A 0.418,0.418 0 0 0 5,16.417969 v 2.164062 C 5,18.813031 5.1869687,19 5.4179688,19 H 5.5820312 A 0.418,0.418 0 0 0 6,18.582031 V 16.417969 A 0.418,0.418 0 0 0 5.5820312,16 Z m 4,0 A 0.418,0.418 0 0 0 9,16.417969 v 2.164062 C 9,18.813031 9.1869688,19 9.4179688,19 H 9.5820312 A 0.418,0.418 0 0 0 10,18.582031 V 16.417969 A 0.418,0.418 0 0 0 9.5820312,16 Z m 8.0000002,0 A 0.418,0.418 0 0 0 17,16.417969 v 2.164062 C 17,18.813031 17.186969,19 17.417969,19 h 0.164062 A 0.418,0.418 0 0 0 18,18.582031 V 16.417969 A 0.418,0.418 0 0 0 17.582031,16 Z M 7.4179688,20 A 0.418,0.418 0 0 0 7,20.417969 v 2.164062 C 7,22.813031 7.1869688,23 7.4179688,23 H 7.5820312 A 0.418,0.418 0 0 0 8,22.582031 V 20.417969 A 0.418,0.418 0 0 0 7.5820312,20 Z m 8.0000002,0 A 0.418,0.418 0 0 0 15,20.417969 v 2.164062 C 15,22.813031 15.186969,23 15.417969,23 h 0.164062 A 0.418,0.418 0 0 0 16,22.582031 V 20.417969 A 0.418,0.418 0 0 0 15.582031,20 Z"
     id="path822"
     inkscape:connector-curvature="0" />
</svg>

<?xml version="1.0" encoding="UTF-8" standalone="no"?>
<svg
   xmlns:dc="http://purl.org/dc/elements/1.1/"
   xmlns:cc="http://creativecommons.org/ns#"
   xmlns:rdf="http://www.w3.org/1999/02/22-rdf-syntax-ns#"
   xmlns:svg="http://www.w3.org/2000/svg"
   xmlns="http://www.w3.org/2000/svg"
   xmlns:sodipodi="http://sodipodi.sourceforge.net/DTD/sodipodi-0.dtd"
   xmlns:inkscape="http://www.inkscape.org/namespaces/inkscape"
   width="24"
   height="24"
   version="1.1"
   id="svg4"
   sodipodi:docname="weather-showers-scattered-symbolic.svg"
   inkscape:version="0.92.4 (5da689c313, 2019-01-14)">
  <metadata
     id="metadata10">
    <rdf:RDF>
      <cc:Work
         rdf:about="">
        <dc:format>image/svg+xml</dc:format>
        <dc:type
           rdf:resource="http://purl.org/dc/dcmitype/StillImage" />
        <dc:title></dc:title>
      </cc:Work>
    </rdf:RDF>
  </metadata>
  <defs
     id="defs8" />
  <sodipodi:namedview
     pagecolor="#ffffff"
     bordercolor="#666666"
     borderopacity="1"
     objecttolerance="10"
     gridtolerance="10"
     guidetolerance="10"
     inkscape:pageopacity="0"
     inkscape:pageshadow="2"
     inkscape:window-width="1131"
     inkscape:window-height="480"
     id="namedview6"
     showgrid="false"
     inkscape:zoom="11.833333"
     inkscape:cx="12"
     inkscape:cy="12"
     inkscape:window-x="0"
     inkscape:window-y="25"
     inkscape:window-maximized="0"
     inkscape:current-layer="svg4" />
  <path
     style="fill:#808080"
     d="M 12 1.9667969 A 5 5 0 0 0 7 6.9667969 A 5 5 0 0 0 7.1074219 7.9726562 A 3 3 0 0 0 7 7.9667969 A 3 3 0 0 0 4 10.966797 A 3 3 0 0 0 7 13.966797 L 16 13.966797 A 4 4 0 0 0 20 9.9667969 A 4 4 0 0 0 16.919922 6.078125 A 5 5 0 0 0 12 1.9667969 z M 5.4179688 16 A 0.418 0.418 0 0 0 5 16.417969 L 5 18.582031 C 5 18.813031 5.1869687 19 5.4179688 19 L 5.5820312 19 A 0.418 0.418 0 0 0 6 18.582031 L 6 16.417969 A 0.418 0.418 0 0 0 5.5820312 16 L 5.4179688 16 z M 9.4179688 16 A 0.418 0.418 0 0 0 9 16.417969 L 9 18.582031 C 9 18.813031 9.1869688 19 9.4179688 19 L 9.5820312 19 A 0.418 0.418 0 0 0 10 18.582031 L 10 16.417969 A 0.418 0.418 0 0 0 9.5820312 16 L 9.4179688 16 z M 17.417969 16 A 0.418 0.418 0 0 0 17 16.417969 L 17 18.582031 C 17 18.813031 17.186969 19 17.417969 19 L 17.582031 19 A 0.418 0.418 0 0 0 18 18.582031 L 18 16.417969 A 0.418 0.418 0 0 0 17.582031 16 L 17.417969 16 z M 7.4179688 20 A 0.418 0.418 0 0 0 7 20.417969 L 7 22.582031 C 7 22.813031 7.1869688 23 7.4179688 23 L 7.5820312 23 A 0.418 0.418 0 0 0 8 22.582031 L 8 20.417969 A 0.418 0.418 0 0 0 7.5820312 20 L 7.4179688 20 z M 15.417969 20 A 0.418 0.418 0 0 0 15 20.417969 L 15 22.582031 C 15 22.813031 15.186969 23 15.417969 23 L 15.582031 23 A 0.418 0.418 0 0 0 16 22.582031 L 16 20.417969 A 0.418 0.418 0 0 0 15.582031 20 L 15.417969 20 z "
     id="path822" />
</svg>
